modules/hawcons-stroke/icons/icon-76-document-file-html.svg

<?xml version="1.0" encoding="UTF-8" standalone="no"?>
<svg width="32px" height="32px" viewBox="0 0 32 32" version="1.1" xmlns="http://www.w3.org/2000/svg" xmlns:xlink="http://www.w3.org/1999/xlink" xmlns:sketch="http://www.bohemiancoding.com/sketch/ns">
    <!-- Generator: Sketch 3.0.3 (7891) - http://www.bohemiancoding.com/sketch -->
    <title>icon 76 document file html</title>
    <desc>Created with Sketch.</desc>
    <defs></defs>
    <g id="Page-1" stroke="none" stroke-width="1" fill="none" fill-rule="evenodd" sketch:type="MSPage">
        <g id="icon-76-document-file-html" sketch:type="MSArtboardGroup" fill="#929292">
            <path d="M19,13 L19,10 L19,10 L13,3 L2.00276013,3 C0.896666251,3 0,3.89833832 0,5.00732994 L0,27.9926701 C0,29.1012878 0.890925393,30 1.99742191,30 L17.0025781,30 C18.1057238,30 19,29.1017876 19,28.0092049 L19,26 L29.0057181,26 C30.6594143,26 32,24.6577357 32,23.0012144 L32,15.9987856 C32,14.3426021 30.6594313,13 29.0057181,13 L19,13 L19,13 L19,13 Z M18,26 L18,28.0066023 C18,28.5550537 17.5523026,29 17.0000398,29 L1.9999602,29 C1.45470893,29 1,28.5543187 1,28.004543 L1,4.99545703 C1,4.45526288 1.44573523,4 1.9955775,4 L12,4 L12,8.99408095 C12,10.1134452 12.8944962,11 13.9979131,11 L18,11 L18,13 L5.99428189,13 C4.34058566,13 3,14.3422643 3,15.9987856 L3,23.0012144 C3,24.6573979 4.3405687,26 5.99428189,26 L18,26 L18,26 L18,26 Z M13,4.5 L13,8.99121523 C13,9.54835167 13.4506511,10 13.9967388,10 L17.6999512,10 L13,4.5 L13,4.5 Z M6.00732994,14 C4.89871223,14 4,14.9001762 4,15.992017 L4,23.007983 C4,24.1081436 4.89833832,25 6.00732994,25 L28.9926701,25 C30.1012878,25 31,24.0998238 31,23.007983 L31,15.992017 C31,14.8918564 30.1016617,14 28.9926701,14 L6.00732994,14 L6.00732994,14 Z M29,22 L29,23 L24,23 L24,16 L25,16 L25,22 L29,22 L29,22 Z M14,17 L14,23 L15,23 L15,17 L17,17 L17,16 L12,16 L12,17 L14,17 L14,17 Z M10,19 L10,16 L11,16 L11,23 L10,23 L10,20 L7,20 L7,23 L6,23 L6,16 L7,16 L7,19 L10,19 L10,19 Z M20.5,19 L19,16 L18.5,16 L18,16 L18,23 L19,23 L19,18 L20,20 L20.5,20 L21,20 L22,18 L22,23 L23,23 L23,16 L22.5,16 L22,16 L20.5,19 L20.5,19 Z" id="document-file-html" sketch:type="MSShapeGroup"></path>
        </g>
    </g>
</svg>

<svg width="32" height="32" viewBox="0 0 32 32" xmlns="http://www.w3.org/2000/svg"><path d="M19 13v-3l-6-7H2.003A2.005 2.005 0 0 0 0 5.007v22.986A2 2 0 0 0 1.997 30h15.006A1.999 1.999 0 0 0 19 28.01V26h10.006A2.996 2.996 0 0 0 32 23.001V16A2.997 2.997 0 0 0 29.006 13H19zm-1 13v2.007A.997.997 0 0 1 17 29H2c-.545 0-1-.446-1-.995V4.995c0-.54.446-.995.996-.995H12v4.994c0 1.12.894 2.006 1.998 2.006H18v2H5.994A2.996 2.996 0 0 0 3 15.999V23A2.997 2.997 0 0 0 5.994 26H18zM13 4.5v4.491c0 .557.45 1.009.997 1.009H17.7L13 4.5zM6.007 14C4.9 14 4 14.9 4 15.992v7.016A2 2 0 0 0 6.007 25h22.986C30.1 25 31 24.1 31 23.008v-7.016A2 2 0 0 0 28.993 14H6.007zM29 22v1h-5v-7h1v6h4zm-15-5v6h1v-6h2v-1h-5v1h2zm-4 2v-3h1v7h-1v-3H7v3H6v-7h1v3h3zm10.5 0L19 16h-1v7h1v-5l1 2h1l1-2v5h1v-7h-1l-1.5 3z" fill="#929292" fill-rule="evenodd"/></svg>
